X:1
T:Ain't Misbehavin'
C:Fats Waller
Z:Creative Commons BY-NC-SA
L:1/8
M:4/4
K:Eb
V:1 treble nm="MusicXML Part"
V:1
"Eb" z EFE"Edim7" B B3 |"Fm7" z FGF"F#dim7" c4 |"Eb" z BcB"G+7" e e2 d |"Ab" f2 ec G/_G/F- F z | %4
w: No one to talk with,|all by my- self.|No one to walk with, but|I'm hap- py on a shelf. *|
"Eb" z EFE"C7" B B3 |"Fm" z F GF"Bb7" c c2 B- |"G7" B G3-"C7" G4- |"F7" G4"Bb7" z4 | %8
w: Ain't mis- be- hav- in',|Just sav- ing my love for|* you. *||
"Eb" z EFE"Edim7" B B3 |"Fm7" z FGF"F#dim7" c4 |"Eb" z BcB"G+7" e e2 d |"Ab" f2 ec G/_G/F- F z | %12
w: I know for cer- tain,|the one I love.|I'm through with flirt- in', it's|you that I'm think- ing of. *|
"Eb" z EFE"C7" B B3 |"Fm" z FGF"Bb7" c c2 B |"Eb" E4-"Ab" E4- |"Eb" E4"G7" z4 |"Cm" z2 ec e c3 | %17
w: Ain't mis- be- hav- in',|I'm sav- ing my love for|you. *||Like Jack Horn- er,|
"Ab7" z2 ec e c3 |"F7" z2 ec e c3 |"C7" z2 =ec e c3 |"F6" z2 f2 f2 f2 |"Cm7" f2 e2"F7" d2 c2 | %22
w: in a corn- er.|Don't go no- where,|what do I care?|Your kiss- es,|they're worth wait- ing|
"G7#9" B4"C7" c4 |"F7" G4"Bb7" F4 |"Eb" z EFE"Edim7" B B3 |"Fm7" z FGF"F#dim7" c4 | %26
w: for, be-|lieve me.|I don't stay out late,|don't care to go.|
"Eb" z BcB"G+7" e e2 d |"Ab" f2 ec G/_G/F- F z |"Eb" z EFE"C7" B B3 |"Fm" z FGF"Bb7" c c2 B | %30
w: I'm home a- bout eight, just|me and my ra- di- o. *|Ain't mis- be- hav- in',|still sav- ing my love for|
"Ab" e8- |"Eb" e4"^Bb7" z4 |] %32
w: you.||

